X: 26118
T: McGoldrick's
R: jig
M: 6/8
K: Dmajor
a2 g|:~f3 efg|fdA GFG|FAd GBd|Acd efg|
~f3 efg|fdA GFG|F2 A GBB|1 ABc d3:|2 ABc dcA||
~B3 ~B3|f2 a fec|eAe fec|Ace fec|
BcA ~B3|f2 a fec|e2 e fec|1 Ace fec:|2 BBB aBg||

